X:1
T: Roxburgh Quick Step
C:
R:Jig
Q:180
K:D
M:6/8
L:1/16
A,2|:D6 F2E2F2|A4d2 F4F2|G4B2 E4D2|C2E2A2 A,2B,2C2|
D6 F2E2F2|A4d2 F4F2|G2B2A2 G2F2E2|1E6D4A,2:|2E6 D4A2|
d6 f2d2f2|a4a2 f4d2|A4d2 G4A2|G2E2E2 E4A2|
d6 f2d2f2|a4a2 f2e2d2|B2d2c2 B2A2^G2|A2B2A2 G2F2E2|
D6 F2E2F2|A4d2 F4F2|G4B2 E4D2|C2E2A2 A,2B,2C2|
D6 F2E2F2|A4d2 F4F2|G2B2A2 G2F2E2|E6D4||
